symbols/web/cast/materialsymbolsrounded/cast_wght200grad200fill1_40px.svg

<svg xmlns="http://www.w3.org/2000/svg" height="40" width="40"><path d="M22.292 32.5q0-3.75-1.417-7.083-1.417-3.334-3.875-5.792-2.458-2.458-5.771-3.896-3.312-1.437-7.104-1.437v-3.667q0-1.333.917-2.25.916-.917 2.25-.917H32.75q1.333 0 2.229.917.896.917.896 2.25v18.75q0 1.333-.896 2.229-.896.896-2.229.896Zm-4.75 0q-.959 0-1.73-.667-.77-.666-1.02-1.791-.75-3.042-2.938-5.292-2.187-2.25-5.271-2.958-1.083-.25-1.771-1.063-.687-.812-.687-1.812 0-1.125.729-1.792t1.729-.5q5.209.833 8.875 4.521 3.667 3.687 4.5 8.896.125 1-.583 1.729-.708.729-1.833.729Zm-7.709 0q-.625 0-1.271-.5-.645-.5-1.312-1.417-.167-.416-.479-.75-.313-.333-.688-.5-.916-.708-1.437-1.395-.521-.688-.521-1.313 0-1.333.937-2.104.938-.771 2.063-.354 1.833.666 3.229 2.083 1.396 1.417 2.063 3.333.416 1.042-.417 1.979-.833.938-2.167.938Z"/></svg>

<svg xmlns="http://www.w3.org/2000/svg" height="40" width="40"><path d="M22.292 32.5Q22.292 28.75 20.875 25.417Q19.458 22.083 17 19.625Q14.542 17.167 11.229 15.729Q7.917 14.292 4.125 14.292V10.625Q4.125 9.292 5.042 8.375Q5.958 7.458 7.292 7.458H32.75Q34.083 7.458 34.979 8.375Q35.875 9.292 35.875 10.625V29.375Q35.875 30.708 34.979 31.604Q34.083 32.5 32.75 32.5ZM17.542 32.5Q16.583 32.5 15.812 31.833Q15.042 31.167 14.792 30.042Q14.042 27 11.854 24.75Q9.667 22.5 6.583 21.792Q5.5 21.542 4.812 20.729Q4.125 19.917 4.125 18.917Q4.125 17.792 4.854 17.125Q5.583 16.458 6.583 16.625Q11.792 17.458 15.458 21.146Q19.125 24.833 19.958 30.042Q20.083 31.042 19.375 31.771Q18.667 32.5 17.542 32.5ZM9.833 32.5Q9.208 32.5 8.562 32Q7.917 31.5 7.25 30.583Q7.083 30.167 6.771 29.833Q6.458 29.5 6.083 29.333Q5.167 28.625 4.646 27.938Q4.125 27.25 4.125 26.625Q4.125 25.292 5.062 24.521Q6 23.75 7.125 24.167Q8.958 24.833 10.354 26.25Q11.75 27.667 12.417 29.583Q12.833 30.625 12 31.562Q11.167 32.5 9.833 32.5Z"/></svg>
